icons/layout-3-fill.svg

<svg viewBox="0 0 24 24" fill="currentColor" xmlns="http://www.w3.org/2000/svg">
    <path d="M8 10V21H4C3.44772 21 3 20.5523 3 20V10H8ZM21 10V20C21 20.5523 20.5523 21 20 21H10V10H21ZM20 3C20.5523 3 21 3.44772 21 4V8H3V4C3 3.44772 3.44772 3 4 3H20Z"/>
</svg>

<svg xmlns="http://www.w3.org/2000/svg" viewBox="0 0 24 24">
    <g>
        <path fill="none" d="M0 0h24v24H0z"/>
        <path d="M8 10v11H4a1 1 0 0 1-1-1V10h5zm13 0v10a1 1 0 0 1-1 1H10V10h11zm-1-7a1 1 0 0 1 1 1v4H3V4a1 1 0 0 1 1-1h16z"/>
    </g>
</svg>
